X:1
T:What ails my darling? - Morley
T:#
%%score { 1 | 2 } 3
L:1/8
Q:1/4=120
M:4/4
K:F
V:1 treble nm="Soprano I" snm="S"
V:2 treble 
V:3 treble nm="Alto" snm="A"
V:1
 z4"^What ails my darling?" F2 FG | A2 A2 F"^Thomas Morley\n(1557-1603)"GAB | c2 c2 A2 AG | %3
w: What ails my|dar- ling, say, what ails my|dar- ling, what ails my|
[M:4/4] F2 GA B4 | A2 F2 A3 B | c4 C2 CD | E2 F2 G4 | A8 | z4 f2 fe | d2 c2 B2 A2 | Bcde f2 FG | %11
w: sweet pret- ty dar-|ling, what ails my|sweet, what ails mine|own sweet dar-|ling?|What ails my|dar- ling dear, thus|sit- ting all a- lone, sit- ting|
 AB c4 CD | E (F G2) F4 | E4 z2 G2 | A2 c3 B A2 | G2 F2 (F2 E2) | F4 z2 c2- | c2 B4 A2- | %18
w: all a- lone, all a-|lone so * wea-|ry? Say,|why is my dear|now not mer\- *|~ry? O|* cease, cease|
 A2 G4 F2 | B2 A2 (G2 F2) | G4 z2 GA | B4 A4 | G2 F3 G A2 | G2 F2 (F4- | F2 ED E4) | F3 G A2 d2- | %26
w: * thus to|grieve, to grieve *|thee, cease a-|las to|grieve, thus to grieve|thee to grieve||thee, my dear cease|
 d2 c2 (c2 =B2) | c4 z2 GA | B2 A2 G4 | F2 G3 F F2- | F2 (ED E4) | F8 | z2 c2 e2 c2 | f4 e2 e2 | %34
w: * to grieve *|thee, And a|kiss with- al|here take to re\-|* lieve * *|thee.|Up now a-|rise thee a-|
 d4 c2 AB | cd e3 d c2- | c2 =B2 c4 | =B4 e2 d2- | d2 c4 =B2 | c2 A2 c3 c | B2 A2 (A4- | %41
w: rise thee; O how|can my love a- las|* lie sleep-|ing, my love|* lie sleep-|ing, how can my|love lie sleep\-|
 A2 GF G4) | A2 A4 A2 | G2 F2 E4 | F4 (F4- | F2 ED E4) | F2 c2 c3 B | A3 G FF f2 | f3 e d2 c2 | %49
w: |ing, O how|can my love|lie sleep\-||ing, And see yon|lus- ty leap- ing, and|see you lus- ty,|
 B2 A2 d2 c2 | B2 A4 d2- | d2 c2 (c2 =B2) | c4 z2 c2 | c3 B A3 G | FF f2 f3 e | d2 c2 B2 A2 | %56
w: lus- ty, lus- ty|leap- ing, lus\-|* ty leap\- *|ing? O|who can lie a-|sleep- ing, And see you|lus- ty leap- ing,|
 d2 c2 B2 A2 | G3 A =B2 c2 | A=B (c4 B2) | c4 z2 A2 | B3 A G2 F2 | E2 A2 G2[Q:1/4=118] c2- | %62
w: lus- ty, lus- ty,|lus- ty leap- ing,|lus- ty leap\- *|ing? and|see you lus- ty|leap- ing, and see|
[Q:1/4=117] c[Q:1/4=115]B[Q:1/4=114] A2[Q:1/4=111] G2[Q:1/4=109] F2 | %63
w: * yon lus- ty, lus-|
[Q:1/4=107] E2[Q:1/4=105] (F2[Q:1/4=102] G4) |[Q:1/4=100] A8 |] %65
w: ty leap\- *|ing.|
V:2
 z8 | c2 cB A2 A2 | FGAB c2 c2 |[M:4/4] f2 fe d2 d2 | c4 F2 FG | A3 B c2 A2 | G2 F2 F2 E2 | F8 | %8
w: |What ails my dar- ling,|say what ails my dar- ling,|what ails my dar- ling|dear, what ails mine|on- ly sweet, mine|on- ly sweet dar-|ling?|
 f2 fe d2 c2 | f2 fe d2 c2 | d2 Bc d2 f2- | f2 FG AB c2- | c2 c4 =B2 | c2 G2 A2 c2- | cB A2 G2 F2 | %15
w: What ails my dar- ling,|what ails my dar- ling,|dear, sit- ting all a\-|* lone, sit- ting all a\-|* lone, so|wea- ry? Say, what|* grieves my dear that|
 E2 F2 G4 | A4 A4 | G4 F4 | _E4 D2 C2 | DE F2 E2 (F2- | F2 ED E4) | F6 E2 | D4 C2 c2 | d4 c4 | %24
w: she is not|mer- ry?|O cease,|cease thus to|grieve, cease a- las to||grieve thee,|to grieve thee,|O cease|
 (B4 G4) | A3 B c2 f2- | f2 e2 d4 | e2 c2 _e4 | d2 c2 B2 c2 | A2 B3 A F2 | G8 | A2 F2 A2 F2 | %32
w: to *|grieve thee, my dear|* cease to|grieve thee, And|take this kiss here,|this kiss take to|re-|lieve thee. Up now|
 c2 BA G2 c2 | (c2 =B2) c4 | F2 G2 A2 c2 | e2 c2 g4 | f4 e4 | d4 g2 f2- | f2 e2 d4 | e2 e4 e2 | %40
w: arise, sweet, a- las a-|rise * thee,|a- rise thee; How|can my love|lie sleep-|ing, my love|* lie sleep-|ing, O how|
 f4 e4 | d8 | ^c4 =c4 | d4 G2 (c2- | c2 =BA B4) | c4 G4 | A4 z2 c2 | c3 B A3 G | FF f2 f3 e | %49
w: can my|love|then, my|love lie sleep\-||ing, sleep-|ing, And|see yon lus- ty|leap- ing and see you|
 d2 c2 B2 A2 | d2 c4 f2- | f2 e2 d4 | e2 g2 g3 f | e3 d (c3 B | A3 G) F2 f2 | f3 e d2 c2 | %56
w: lus- ty leap- ing,|lus- ty, lus\-|* ty leap-|ing? O who can|lie a- sleep\- *|* * ing, And|see you lus- ty|
 B2 A2 d2 cd | ef g4 g2 | f2 (ef) (g3 f) | e6 c2 | d3 c B2 A2 | G2 F2 E2 A2 | G2 c3 B A2 | %63
w: leap- ing, and see you|lus- ty leap- ing,|lus- ty * leap\- *|ing? and|see you lus- ty,|lus- ty leap- ing,|and see yon lus-|
 G2 (F4 E2) | F8 |] %65
w: ty leap\- *|ing.|
V:3
 F2 FG A2 A2 | FGAB c2 c2 | z4 F2 FE |[M:4/4] D2 C2 B,CDE | FGAB c2 c2 | F,2 F,G, A,3 B, | %6
w: What ails my dar- ling,|say, what ails my dar- ling,|what ails my|dar- ling, say, what ails my|dain- ty, dain- ty dar- ling,|what ails mine own sweet|
 C2 A,2 C4 | F,4 F2 FE | D2 C2 B,2 A,2 | B,2 F2 B,2 F2 | B,4 B,CDE | F4 F,G,A,B, | C2 _E2 D4 | %13
w: dain- ty dar-|ling? What ails my|dain- ty dar- ling,|my dain- ty dar-|ling so to sit a-|lone, so to sit a-|lone so wea-|
 C4 C4 | C4 C4 | C8 | F,4 F4 | _E4 D4 | C4 B,2 A,2 | G,2 F,2 C2 D2 | C6 C2 | D6 C2 | B,4 A,2 F,2 | %23
w: ry? and|is not|mer-|ry? O|cease, O|cease thus to|grieve thee to grieve|thee, O|cease to|grieve thee, a-|
 B,4 A,4 | G,8 | F,4 F2 D2- | D2 E2 (F2 G2) | C6 C2 | DE F2 F2 E2 | D2 (B,2 D4) | C8 | F,4 z2 F,2 | %32
w: las to|grieve|thee, O cease|* to grieve *|thee, And|here a kiss, kiss take|to re\- *|lieve|thee. Up|
 A,2 F,2 C2 E2 | D4 C2 C2 | D2 B,2 F4 | C2 C3 D E2 | D4 CDEF | G4 E2 F2- | F2 C2 G4 | C6 A,2 | %40
w: now a- rise a-|rise thee, up|now a- rise|thee, up a- rise|thee; O how can my|love, my love|* lie sleep-|ing, my|
 D4 C4 | B,8 | A,4 A,4 | B,4 C4 | D4 D4 | C8 | F,8 | z2 F2 F3 E | D3 C B,2 A,2 | B,2 F2 D2 F2 | %50
w: love lie|sleep-|ing, how|can my|love lie|sleep-|ing,|And see you|lus- ty leap- ing,|lus- ty, lus- ty|
 B,2 F4 D2- | D2 E2 (F2 G2) | C8 | z4 z2 F2 | F3 E D3 C | (B,2 A,2) B,2 F2 | B,2 F2 D2 F2 | %57
w: leap- ing, lus\-|* ty leap\- *|ing?|O|who can lie a-|sleep\- * ing, And|see you lus- ty,|
 CDEF G2 E2 | F2 A2 G4 | C6 F2 | B,4 B,4 | C8- | C4 C4 | C8 | F,8 |] %65
w: lus- ty, lus- ty leap- ing,|lus- ty leap-|ing? and|see yon|lus\-|* ty|leap-|ing.|

